X:1
T:Anima mea liquefacta est.
T:Antonius Busnoys
T:Anima mea liquefacta est.
C:Antonius Busnoys
%%score [ 1 [ 2 3 ] ]
L:1/8
Q:1/4=120
M:4/4
K:C
V:1 treble-8 nm="Tenor" snm="T"
V:2 bass nm="Bass 1" snm="B 1"
V:3 bass nm="Bass 2" snm="B 2"
V:1
"^Song of songs 5:6-9" d8 | d4 c4 | d6 e2- | e4 f4 | e6 d2 | d4 z4 | d4 e2 f2- | fe d4"^#" ^c2 | %8
w: A-|ni- *|ma _|_ _|||me- * *||
 d4 f4 | e4 d3 c | d2 e3 d c2- | cB A4 e2 | d2 f4 e2- | e2 d4"^#" ^c2 | d6 A2 | _B2 A4 GF | E4 e4 | %17
w: a li-|que- fac- *||||||||
 f6 ed | c2 d4 c2 | d4 z4 | c6 d2- | d2 e2 f2 ed | e4 A2 _B2 | A2 d4"^#" ^c2 | d2 f2 e2 g2- | %25
w: |* * ta|est|ut _|_ di- lec- * *|* tus lo-|cu- * *||
 gfed c2 e2- | ef g3 e f2- | fe d3 A _B2 | c2 d4 c2 | d8 | z2 a4 g2 | f2 ed c3 B | d2 A2 BAGF | %33
w: |||* * tus|est.|Que- *|si- * * * vi|il- * * * * *|
 E2 F E2 A2"^#" ^G | A3 G E4 | z8 | A4 _B2 A2 | d2 e2 f2 ed | c3 d e4 | A4 z4 | A4 _B4 | %41
w: |* * lum,||et non in-|ve- * * * *||ni.|Vo- ca-|
 A2 d4"^#" ^c2 | d2 f2 e2 g2 | f2 e4 d2 | e4 c2 g2- | gfed c3 B | d4 e4 | d2 f4 ed | c2 e3 f g2- | %49
w: |vi, et non re-|spon- * *||||dit mi- * *||
 gf d2 e4 | d4 z2 a2- | agfe f2 ed | c6 A2- | A2 B4 G2- | G2 c4 B2 | c2 e3 f g2- | g2 e4 d2 | %57
w: |hi. In-|* * * * * ve- *|ne- *|||runt me _ _|_ _ _|
 e3 f g3 f | e2 d4 c2 | d2 f2 e2 g2 | f2 ed c2 BA | G2 c4 B2 | c4 z4 | c4 d4 | f4 e2 c2- | %65
w: ||* cus- to- *|des mu- * ro- * *||rum,|per- cus-|se- * *|
 cB A2 G2 c2- | cd e2 f2 ed | c2 e3 f ed/c/ | B2 A4 d2- | d2 _B2 cBAG | F3 G A2 _B2- | %71
w: ||||||
 BA d3 e f2- | fe g3 f d2- | d2"^#" ^cB"^#" c4 | d8 | z8 | z8 | z8 | d4 B2 A2- | A2 d4 c2 | d4 f4 | %81
w: ||* * * runt|me,||||et _ vul-|* * ne-|ra- *|
 g4 a2 gf | e2 e3 d cB | A3 B c2 A2 | d2 e2 f3 e | ^c8 | z4 d4 | d8 | c4 d2 f2- | f2 e2 c3 d | %90
w: ve- * * *|* runt _ _ _|_ _ _ _|me. _ _ _|_|Tu-|le-|* runt pal-||
 e2 f4 e2- | e2 d2 e2 g2- | g2 e2 f4- | f2 d2 e4 | d4 z2 a2- | a2 g2 f3 g | a4 e3 f | g4 d3 e | %98
w: |* li- um me-|||um cu-|* * sto- *|||
 f3 e c3 d | e3 d B3 c | d3 c A4- | A2 d4"^#" ^c2 | d4 z2 d2 | f3 e d2 c2 | B2 c2 d2 f2- | %105
w: ||||des mu-|ro- * * *||
 fe d4"^#" ^c2 |[M:3/2] d4 z4 f4 | f2 g2 a4 g2 f2 | f4 d6 c2 | e4 z4 e4 | A4 B4 c4 | A4 d4 c2 B2 | %112
w: |rum. Fi-|li- * * * *||ae Hie-|ru- * *|* * sa- *|
 d2 e2 f2 g2 f2 d2 | c2 e2 d2 B2 d2 c2 | A2 B2 d2 c4 B2 |[M:4/4] d3 B A B2 c | %116
w: lem, _ _ _ _ _|_ _ _ _ _ _||nun- ti- a- * *|
 Adc f2 e/d/ e/d/c/B/ | A>B c d2 c df | eg- g/f/e/d/"^#" ^cB c2 | d4 z2 g2 | a4 e4 | z2 f2 g4 | %122
w: |* * * * * te di-|lec- * * * * * * * *|to, qui-|a _|a- mo-|
 d4 z2 e2 | f2 ed c2 A2 | d2 f3 e g2 | f2 a3 g fd | e2 df eg fe/d/ | c3 A2 _B AG/F/ | %128
w: re lan-||||||
[M:6/4] E3 F G2 A3 B c2 | d2 e3 d d4"^#" ^c2 |[M:4/4] d8- | d8 |] %132
w: |* * * * gue-|o.|_|
V:2
 D,6 E,2 | F,2 G,2 E,4 | D,3 C, B,,2 A,,2 | C,4 D,2 A,2- | A,2 B,2 C4 | D4 B,2 G,2- | %6
w: A- *||* * * ni-|ma _ me-|||
 G,A, B,2 C2 A,2- | A,G, F,2 E,4 | z2 D,4 A,2- | A,2 G,2 _B,3 A, | F,2 G,2 A,3 G, | %11
w: |* * * a|li- *|* que- fac- *||
 F,3 E, D,2 C,2 | D,3 E, F,2 G,2 | A,2 F,2 E,4 | D,8 | z8 | A,,8 | A,4 A,4- | A,4 G,2 F,2 | %19
w: ||* * ta|est||ut|di- lec-||
 _B,4 A,4 | z2 A,,4 _B,,2 | D,2 C,2 _B,,4 | A,,4 z4 | D,4 A,,4 | _B,,4 C,3 D, | E,6 C,2 | %26
w: |||tus|lo- *|cu- * *||
 C,4 z2 _B,,2- | B,,C, D,3 C, _B,,2 | A,,2 G,,2 A,,4 | z2 A,4 G,2 | F,2 E,D, C,3 B,, | D,4 E,4 | %32
w: ||* tus est.|Que- *|si- * * * vi|il- *|
 D,2 D,4 B,,2 | C,2 D, E,2 C, B,,2 | A,,8 | A,3 G, F,2 E,2 | D,4 z2 D,2- | D,2 C,2 _B,,4 | %38
w: ||lum,|et _ _ _|non in-|* * ve-|
 A,,4 z2 A,,2- | A,,2 D,2 C,2 E,2 | F,2 A,2 G,4 | F,4 z4 | _B,,4 C,2 E,2 | D,2 C,2 D,4 | %44
w: |||ni.|Vo- ca- *|vi, _ _|
 A,,3 B,, C,3 D, | E,3 F, G,3 A, | B,2 A,4 G,2 | F,3 E, F,4 | E,6 C,2 | D,2 B,,2 A,,4 | %50
w: et _ _ _|_ _ _ _|* non re-|spon- * *||* * dit|
 z2 D,3 E, F,2- | F,E,D,C, B,,4 | A,,4 z4 | z8 | E,4 F,4 | G,4 C,4- | C,4 D,4 | A,,4 z2 E,2 | %58
w: mi- * *||hi.||In- *|ve- ne-|* runt|_ me|
 C,2 D,2 A,,4 | _B,,4 C,4 | D,4 A,,3 B,, | C,2 A,,2 G,,4 | z2 G,4 A,2- | A,G, E,2 F,2 D,2- | %64
w: _ _ _|cus- *|to- * *|* * des|mu- *|* * * ro- *|
 D,2 B,,2 C,2 A,,2- | A,,2 D,2 E,2 C,2 | A,,2 C,2 _B,,4 | A,,4 G,,4 | z4 D,4 | _B,,4 A,,4 | %70
w: |||rum, _|per-|* cus-|
 A,4 F,2 G,2 | A,4 z2 D,2 | E,2 C,2 _B,,4 | A,,8 | A,4 _B,4 | A,2 G,3 E, F,G, | E,2 D,3 C, _B,,2 | %77
w: * se- *|runt me,|_ _ _||et _|vul- * * ne- *|ra- ve- * *|
 A,,2 D,4 C,2 | D,2 F,3 G, A,2- | A,2 F,2 E,4 | D,2 F,4 A,2 | G,2 F,E, D,4 | C,4 z2 C,2 | %83
w: ||||||
 D,2 C,B,, A,,2 D,2- | D,2 C,2 _B,,4 | A,,4 z4 | C,4 D,3 E, | F,2 G,3 F, E,D, | E,4 D,3 E, | %89
w: |* * runt|me.|Tu- le- *||* runt _|
 F,2 G,2 A,3 B, | C2 A,4 G,2 | F,4 E,4- | E,2 C,2 D,3 C, | A,,2 B,,2 C,4 | z2 D,4 F,2 | %95
w: _ pal- * *|* * li-|um me-||* * um|cu- *|
 E,4 D,2 F,2- | F,G, A,4 E,2- | E,F, G,4 D,2- | D,E, F,3 E, C,2- | C,D, E,3 D, B,,2- | %100
w: * * sto-|||||
 B,,C, D,3 C, A,,2 | D,2 F,2 E,4 | z2 D,2 F,3 E, | D,2 C,2 B,,2 C,2 | D,2 E,2 F,4 | D,4 E,4 | %106
w: |* * des|mu- ro- *|||* rum.|
 z4 D,4 x4 | A,8- x4 | A,8 x4 |[M:3/2] G,6 A,2 G,2 E,2 | D,4 F,2 E,2 G,4 | F,4 _B,,4 A,,4 | %112
w: Fi-|li-||ae Hie- ru- *||sa- * lem,|
 z2 D,4 E,2 D,2 B,,2 | A,,2 C,2 B,,2 G,,4 G,2 | F,2 D,4 G,4 F,2 |[M:4/4] A,3 G, F,2 E,2 | %116
w: nun- ti- a- *|* * * te di-|lec- * * *||
 D,2 F,2 C,4 | z2 F,3 E, D,2 | C,2 D,2 E,4 | D,4 z4 | z8 | z8 | A,4 G,4 | F,4 E,2 F,2- | %124
w: |||to,|||qui- a|a- * mo-|
 F,E, D,C,/B,,/ A,,2 E,2 | F,>D, D,2 z C,D,F, | E,G,- G,/F,/E,/D,/ C,E, D,C,/B,,/ | %127
w: |* * re lan- * *||
 A,,2 z D,2 D, E,F, |[M:6/4] G,3 F, E,2 F,3 G, A,2 | F,2 G,3 D, F,2 E,3 D, |[M:4/4] D,8 | A,8 |] %132
w: ||* * * * gue- *|o.|_|
V:3
 z8 | z8 | z8 | z8 | z8 | z8 | z8 | z8 | z8 | z8 | z8 | z8 | z8 | z8 | z4 D,4- | D,8 | C,8 | %17
w: ||||||||||||||Stirps|_||
 D,6 E,2 | F,4 E,4 | D,8 | E,4 F,4- | F,2 E,2 D,4 | C,4 D,3 E, | F,4 E,4 | z2 D,2 E,3 D, | %25
w: |||||Jes- * *|||
 C,3 B,, A,,4 | E,6 D,2 | F,6 D,2 | E,8 | D,8- | D,4 z4 | z8 | z8 | z8 | C,8 | D,6 E,2 | %36
w: ||||se|_||||vir-||
 F,4 D,2 F,2- | F,2 E,2 D,3 C, | E,8 | F,4 G,4 | F,2 F,4 E,2 | F,4 E,4 | D,4 C,4 | D,2 E,2 F,4 | %44
w: |||||||gam _ _|
 E,8 | E,8 | D,4 C,4 | D,8 | A,,4 C,4 | B,,4 C,4 | D,8 | z4 D,4 | E,4 F,4 | D,4 E,4 | C,4 D,4 | %55
w: _|pro-|||du- *|xit, _|_|vir-||||
 C,3 D, E,3 F, | G,4 F,4 | E,6 G,2- | G,2 F,2 E,4 | D,4 E,4 | F,4 E,4- | E,2 C,2 D,4 | C,8 | z8 | %64
w: ||||ga- *||* * que|_||
 D,4 E,4 | F,4 E,4- | E,4 D,4 | E,4 G,4- | G,2 F,2 F,4- | F,2 D,2 E,4 | D,8- | D,4 D,4 | C,4 D,4 | %73
w: flo- *||||||rem.|_ Et|su- per|
 E,4 E,4 | D,6 E,2 | F,2 E,4 D,2 | E,2 F,3 E, D,2 | C,2 F,2 E,4 | D,8 | z8 | D,8 | E,4 F,4 | G,8 | %83
w: _ hunc|_ _|* flo- *|||rem||re-|qui- *||
 F,3 D, E,2 F,2- | F,E, E,4 D,2 | E,8- | E,4 z4 | z8 | z8 | z8 | z8 | z8 | z8 | z8 | z8 | z8 | z8 | %97
w: e- * * *||scit|_|||||||||||
 z8 | z8 | z8 | z8 | z8 | z8 | z8 | z8 | z8 | D,8 x4 | D,4 C,4 x4 |[M:3/2] D,4 F,6 E,2 | %109
w: |||||||||Spi-|ri- *|tus _ _|
[M:4/4] C,8 x4 | D,4 E,4 x4 |[M:3/2] F,6 D,2 E,4 |[M:4/4] D,4 z4 x4 |[M:3/2] E,4 G,6 E,2 | %114
w: _|al- *||||
 F,4 E,6 D,2 |[M:4/4] D,6 E,2 | F,2 A,2 G,4 | F,4 z4 | z4 z2 G,2 | A,4 E,4 | z2 F,2 G,4 | %121
w: |||||||
 D,4 z2 E,2 | F,3 E, C,4 | D,3 C, A,,2 D,2- | D,2 B,,2 C,4 | D,2 F,3 E, D,2 | C,2 B,,2 C,2 D,2 | %127
w: ||||||
 E,2 F,4 E,D, | C,4 z4 x4 | z8 x4 | D,8- | D,8 |] %132
w: |||mus.|_|

